src/16/panel/rto-proxy-tray.svg

<svg xmlns="http://www.w3.org/2000/svg" width="16" height="16" version="1.1">
 <defs>
  <style id="current-color-scheme" type="text/css">
   .ColorScheme-Text { color:#dfdfdf; } .ColorScheme-Highlight { color:#4285f4; }
  </style>
 </defs>
 <path style="fill:currentColor" class="ColorScheme-Text" d="M 8 1 A 7 7 0 0 0 1 8 A 7 7 0 0 0 8 15 A 7 7 0 0 0 15 8 A 7 7 0 0 0 8 1 z M 8 4 L 9.2363281 6.6328125 L 12 7.0566406 L 10 9.1054688 L 10.472656 12 L 8 10.632812 L 5.5273438 12 L 6 9.1054688 L 4 7.0566406 L 6.7636719 6.6328125 L 8 4 z"/>
</svg>

<svg xmlns="http://www.w3.org/2000/svg" width="16" height="16"><defs><style id="current-color-scheme" type="text/css">.ColorScheme-Text{color:#dfdfdf;}.ColorScheme-Highlight{color:#5294e2;}</style></defs><defs><style id="current-color-scheme" type="text/css"></style></defs><path d="M8 1a7 7 0 0 0-7 7 7 7 0 0 0 7 7 7 7 0 0 0 7-7 7 7 0 0 0-7-7zm0 3l1.236 2.633L12 7.057l-2 2.048.473 2.895L8 10.633 5.527 12 6 9.105 4 7.057l2.764-.424L8 4z" fill="currentColor" class="ColorScheme-Text"/></svg>
